src/pos-icons/weather-cloudy.svg

<svg height="24" viewBox="0 0 24 24" width="24" xmlns="http://www.w3.org/2000/svg"><path d="m6 19a5 5 0 0 1 -5-5 5 5 0 0 1 5-5c1-2.35 3.3-4 6-4 3.43 0 6.24 2.66 6.5 6.03l.5-.03a4 4 0 0 1 4 4 4 4 0 0 1 -4 4zm13-6h-2v-1a5 5 0 0 0 -5-5c-2.5 0-4.55 1.82-4.94 4.19-.33-.12-.69-.19-1.06-.19a3 3 0 0 0 -3 3 3 3 0 0 0 3 3h13a2 2 0 0 0 2-2 2 2 0 0 0 -2-2z"/></svg>

<?xml version="1.0" encoding="UTF-8"?><!DOCTYPE svg PUBLIC "-//W3C//DTD SVG 1.1//EN" "http://www.w3.org/Graphics/SVG/1.1/DTD/svg11.dtd"><svg xmlns="http://www.w3.org/2000/svg" xmlns:xlink="http://www.w3.org/1999/xlink" version="1.1" id="mdi-weather-cloudy" width="24" height="24" viewBox="0 0 24 24"><path d="M6,19A5,5 0 0,1 1,14A5,5 0 0,1 6,9C7,6.65 9.3,5 12,5C15.43,5 18.24,7.66 18.5,11.03L19,11A4,4 0 0,1 23,15A4,4 0 0,1 19,19H6M19,13H17V12A5,5 0 0,0 12,7C9.5,7 7.45,8.82 7.06,11.19C6.73,11.07 6.37,11 6,11A3,3 0 0,0 3,14A3,3 0 0,0 6,17H19A2,2 0 0,0 21,15A2,2 0 0,0 19,13Z" /></svg>
